icons/fill-ele-office-tool-edit-brush-2-s-open.svg

<svg xmlns="http://www.w3.org/2000/svg" width="32px" height="32px" viewBox="0 0 32 32" version="1.1">
    <title>fill-ele-office-tool-edit-brush-2-s-open</title>
    <g id="fill-ele-office-tool-edit-brush-2-s-open" stroke-width="1" fill-rule="evenodd">
        <path d="M26,17 C26,19.209139 24.209139,21 22,21 L19,21 L19,26 C19,27.6568542 17.6568542,29 16,29 C14.3431458,29 13,27.6568542 13,26 L13,21 L10,21 C7.790861,21 6,19.209139 6,17 L26,17 Z M6,4 C6,3.44771525 6.44771525,3 7,3 L25,3 C25.5522847,3 26,3.44771525 26,4 L26,15 L6,15 L6,4 Z" id="&#24418;&#29366;" />
    </g>
</svg>

<svg xmlns="http://www.w3.org/2000/svg" viewBox="0 0 32 32"><path fill="currentColor" d="M26 17a4 4 0 0 1-4 4h-3v5a3 3 0 0 1-6 0v-5h-3a4 4 0 0 1-4-4zM6 4a1 1 0 0 1 1-1h18a1 1 0 0 1 1 1v11H6z"/></svg>
